simple/databricks.svg

<svg viewBox="0 0 24 24" xmlns="http://www.w3.org/2000/svg"><path d="M.95 14.184L12 20.394l9.919-5.55v2.21L12 22.653 1.51 16.69l-.57.3v.77l11.04 6.22 11.05-6.218V13.44l-.52-.31 -10.535 5.96L2.1 13.43v-2.21l9.867 5.55 11.05-6.218V6.29l-.52-.31 -10.535 5.96L2.61 6.65l9.35-5.293 7.76 4.36 .66-.42v-.57L11.95-.06 .9 6.21v.72l11.05 6.21 9.919-5.55v2.26L11.95 15.46 1.46 9.5l-.57.3Z"/></svg>

<svg role="img" viewBox="0 0 24 24" xmlns="http://www.w3.org/2000/svg"><title>Databricks</title><path d="M.95 14.184L12 20.403l9.919-5.55v2.21L12 22.662l-10.484-5.96-.565.308v.77L12 24l11.05-6.218v-4.317l-.515-.309L12 19.118l-9.867-5.653v-2.21L12 16.805l11.05-6.218V6.32l-.515-.308L12 11.974 2.647 6.681 12 1.388l7.76 4.368.668-.411v-.566L12 0 .95 6.27v.72L12 13.207l9.919-5.55v2.26L12 15.52 1.516 9.56l-.565.308Z"/></svg>
